X:11
T:High Germany
R:song
D:Dubliners
Z:id:hn-song-11
M:2/4
L:1/16
Q:1/4=85
K:Dm
A2 | A2 D2 D2 C2 | (F3 G) A2 A2 | G2 F2 D2 C2 | D6
(CD) | F2 F2 (FG)(AB) | c4 d2 dd | c2 A2 (GA)(BG) | A6
(AG) | F2 F2 (FG)(AB) | c2 c2 d2 d2 | c2 A2 G2 F2 | G6
FG | A2 D2 D2 C2 | F3 G A2 A2 | (G2F2) D3 C | D6 ||
W:Oh Polly, love, oh Polly, the rout has now begun,
W:and we must go a-marching to the beating of a drum.
W:Come dress yourself all in your best and come along with me,
W:and I'll take you to the war, me love, in high Germany.
W:
W:Oh Willy, love, oh Willy, come list what I do say.
W:My feet they are so tender, I cannot march away.
W:And besides, my dearest Willy, I am with child by thee.
W:Not fitted for the war, me love, in high Germany.
W:
W:I'll buy for you a horse, me love, and on it you shall ride.
W:And all my delight shall be a-riding by your side.
W:We'll stop at every alehouse and drink when we are dry.
W:We'll be true to one another, get married bye and bye.
W:
W:Oh, cursed be them cruel wars wherever they should rise,
W:and out of merry England press many a man likewise.
W:They pressed my true love from me, likewise my brothers three,
W:and sent them to the wars, me love, in high Germany
W:
W:My friends I do not value, my foes I do not fear.
W:Now my love has left me I wander far and near.
W:And when my baby it is born and smiling on my knee,
W:I'll think of lovely Willy in High Germany.
W:
W:Oh Polly, love, oh Polly, the rout has now begun
W:And we must go a-marching to the beating of a drum
W:Go dress yourself all in your best and come along with me
W:I'll take you to the war, me love, in high Germany

